!!!OTL: Bettelfrau und Bettelmann (2-97) S. 283
!!!id: P0968
**kern
*clefG2
*k[f#]
*G:
*M2/4
8r
{8g
8g
8b
=2
8dd
16dd
16dd
8dd}
=3
{8dd
=4
8ee
8dd
8cc
8b
=5
8cc}
=6
{8ee
8dd
8cc
=7
8b
8a
8b}
=8
{8dd
=9
8cc
8b
8.a
16dd
=10
4.dd}
8r
=11
{4dd
4dd
=12
8b
16b
16a
4g
=13
8b
8b
8a
8a
=14
4.f#}
8r
=15
{4dd
4dd
=16
4ff#
4ee
=17
8dd
8f#
4g}
==
*-
!!!minrhy: 16
!!!meters: 2/4 ]  ZZ[6
!!!cut: Bettelfrau und Bettelmann (2-97) S. 283
!!!reg: Lothringen
!!!trd: PINCK, Louis: Verklingende Weisen, Bd 2, Metz 1928
!!!rhy1: 0_X_X_X_  X_XXX_
!!!rhy2: X_  X_X_X_X_  X_
!!!key: P0968  16  G 2/4 ]  ZZ[6
!!!mod: HEPTATONIK IONISCH]  AMBITUS[8
!!!kad: 5435-71
!!!akz: 5_64_3_45_533-7_575_
!!!fot: 'a__b__bs'c__d__e__
!!!for: 'a__aw_aw_aw_b__c__
!!!fok: '/__\__\__V__\__^d_
!! PHRAS[VORWIEGEND AUFTAKTIG]
!!!fkt: ???
!! LOTH VKL
!! PR[19] 2K[3] 2G[22] 3K[0] 3G[1] 4A[1] 4Ü[0] 5A[3] 6K[0] 6G[4]
!! 7K[0] 7G[0] 8A[0] MEHR[0] SI[35] ABS[69] SR[25] SP[10]
!! ST[20] 2k[3] 2g[33] 3k[3] 3g[3] 4d[4] 4ü[0] 5d[0] 6k[0] 6g[0]
!! 7k[0] 7g[0] 8d[0] mehr[0] si[46] dm[-11] sr[36] sp[10]
!! 1F[44] 2F[47] 3F[3] 4F[0] LF[0] 2P[6] 3P[0] 4P[0] TRI[0] DF[4] AB[72]
!! TF[0] U3K[0] U3[0] U4[0] U4Ü[0] U5[13] U6K[0] U6[0] U7K[0] U7[0]
!! N1[16] N2K[0] N2[24] N3K[0] N3[21] N4[11] N4Ü[0] N5[11] N6K[0] N6[3]
!!!n7k: 0] N7[0] O1[0] O2K[0] O2[0] O3K[0] O3[0] HÖ[0
